lib/brands/logos/amex-card.svg

<svg xmlns="http://www.w3.org/2000/svg" fill="none" aria-hidden="true" viewBox="0 0 119 86"><g id="Amex card" clip-path="url(#clip0_2758_248254)"><path id="Vector" fill="#26A6D1" d="M7.3909 0.400055H110.865C114.945 0.400055 118.256 3.71106 118.256 7.7946V78.0092C118.256 82.089 114.945 85.4001 110.865 85.4001H7.3909C3.30736 85.4005 0 82.0891 0 78.0096V7.7946C0 3.71106 3.31101 0.400055 7.3909 0.400055Z"/><path id="Vector_2" fill="white" d="M19.0688 29.964L7.39087 55.8068H21.371L23.1041 51.6864H27.0656L28.7987 55.8068H44.1869V52.662L45.5581 55.8068H53.518L54.8892 52.5955V55.8068H86.8924L90.7838 51.7934L94.4276 55.8068L110.865 55.8401L99.1503 42.9576L110.865 29.964H94.6825L90.8945 33.9033L87.3654 29.964H52.5501L49.5605 36.6343L46.5008 29.964H32.5499V33.0018L30.998 29.964C30.998 29.964 19.0688 29.964 19.0688 29.964ZM21.7738 33.6337H28.5884L36.3343 51.1579V33.6337H43.7994L49.7822 46.1985L55.2961 33.6337H62.7239V52.1777H58.2043L58.1674 37.6467L51.5782 52.1777H47.5352L40.9091 37.6467V52.1777H31.6112L29.8485 48.0203H20.3252L18.5662 52.174H13.5845C13.5845 52.174 21.7738 33.6337 21.7738 33.6337ZM66.8589 33.6337H85.2367L90.8576 39.7053L96.6596 33.6337H102.281L93.7402 42.9539L102.281 52.1667H96.4047L90.7838 46.0246L84.9521 52.1667H66.8589V33.6337ZM25.0889 36.7713L21.9514 44.1772H28.2228L25.0889 36.7713ZM71.3972 37.4733V40.8585H81.4231V44.6315H71.3972V48.3272H82.6427L87.868 42.8838L82.8644 37.47H71.3972V37.4733Z"/></g><defs><clipPath id="clip0_2758_248254"><rect width="118.256" height="85" fill="white" transform="translate(0 .4)"/></clipPath></defs></svg>

<svg xmlns="http://www.w3.org/2000/svg" fill="none" aria-hidden="true" viewBox="0 0 119 86"><g clip-path="url(#a)"><path fill="#26A6D1" d="M7.39.4h103.475a7.394 7.394 0 0 1 7.391 7.395v70.214a7.393 7.393 0 0 1-7.391 7.391H7.391A7.39 7.39 0 0 1 0 78.01V7.795A7.394 7.394 0 0 1 7.39.4Z"/><path fill="#fff" d="M19.069 29.964 7.39 55.807h13.98l1.733-4.12h3.962l1.733 4.12h15.388v-3.145l1.371 3.145h7.96l1.371-3.212v3.212h32.003l3.892-4.014 3.644 4.014 16.437.033L99.15 42.958l11.715-12.994H94.683l-3.789 3.94-3.529-3.94H52.55l-2.99 6.67-3.06-6.67H32.55v3.038l-1.552-3.038h-11.93Zm2.705 3.67h6.814l7.746 17.524V33.634H43.8l5.983 12.565 5.514-12.565h7.428v18.544h-4.52l-.037-14.531-6.589 14.53h-4.043l-6.626-14.53v14.53h-9.298L29.85 48.02h-9.524l-1.759 4.154h-4.981l8.189-18.54Zm45.085 0h18.378l5.62 6.071 5.803-6.071h5.621l-8.54 9.32 8.54 9.213h-5.876l-5.621-6.142-5.832 6.142H66.86V33.634Zm-41.77 3.137-3.138 7.406h6.272l-3.134-7.406Zm46.308.702v3.386h10.026v3.773H71.397v3.695h11.246l5.225-5.443-5.004-5.414H71.397v.003Z"/></g><defs><clipPath id="a"><path fill="#fff" d="M0 0h118.256v85H0z" transform="translate(0 .4)"/></clipPath></defs></svg>
